Origami/64x64/apps/gifup.svg

<svg width="64" height="64" version="1.1" viewBox="0 0 64 64" xmlns="http://www.w3.org/2000/svg">
 <g transform="translate(0,-988.3622)">
  <path d="m7.6212858 993.3642c-1.9861298-0.064-3.6213664 1.4468-3.6212858 4.1892v23.7448 23.7484c-8.006e-4 3.762 2.9500048 5.4176 5.309197 3.5348l14.460321-11.5268 14.463076-11.5266c2.356542-1.8806 2.356542-6.5766 0-8.457l-14.463076-11.5268-14.460321-11.5266c-0.5140314-0.41-1.094483-0.6346-1.6879112-0.6534z" style="opacity:.2"/>
  <path d="m17.621286 993.3642c-1.98613-0.064-3.621366 1.4468-3.621286 4.1892v23.7448 23.7484c-8e-4 3.762 2.950005 5.4176 5.309197 3.5348l14.460319-11.5268 14.463078-11.5266c2.356542-1.8806 2.356542-6.5766 0-8.457l-14.463078-11.5268-14.460319-11.5266c-0.514032-0.41-1.094483-0.6346-1.687911-0.6534z" style="opacity:.2"/>
  <path d="m27.621286 993.3642c-1.98613-0.064-3.621366 1.4468-3.621286 4.1892v23.7448 23.7484c-8e-4 3.762 2.950004 5.4176 5.309196 3.5348l14.46032-11.5268 14.463078-11.5266c2.356542-1.8806 2.356542-6.5766 0-8.457l-14.463078-11.5268-14.46032-11.5266c-0.51403-0.41-1.094482-0.6346-1.68791-0.6534z" style="opacity:.2"/>
  <path d="m7.6212858 992.3642c-1.9861298-0.064-3.6213664 1.4468-3.6212858 4.1892v23.7448 23.7484c-8.006e-4 3.762 2.9500048 5.4176 5.309197 3.5348l14.460321-11.5268 14.463076-11.5266c2.356542-1.8806 2.356542-6.5766 0-8.457l-14.463076-11.5268-14.460321-11.5266c-0.5140314-0.41-1.094483-0.6346-1.6879112-0.6534z" style="fill:#358be1"/>
  <path transform="translate(0,988.3622)" d="m7.6210938 4.0019531c-1.9861298-0.064-3.6211744 1.4470532-3.6210938 4.1894531v1c-8.06e-5 -2.7423999 1.634964-4.2534531 3.6210938-4.1894531 0.5934282 0.0188 1.1734685 0.2442969 1.6875 0.6542969l14.460937 11.525391 14.462891 11.527343c1.058581 0.844694 1.638562 2.257932 1.746094 3.728516 0.131847-1.803141-0.448134-3.692809-1.746094-4.728516l-14.462891-11.527343-14.460937-11.525391c-0.5140315-0.41-1.0940718-0.6354969-1.6875-0.6542969z" style="fill:#ffffff;opacity:.2"/>
  <path d="m17.621286 992.3642c-1.98613-0.064-3.621366 1.4468-3.621286 4.1892v23.7448 23.7484c-8e-4 3.762 2.950005 5.4176 5.309197 3.5348l14.460319-11.5268 14.463078-11.5266c2.356542-1.8806 2.356542-6.5766 0-8.457l-14.463078-11.5268-14.460319-11.5266c-0.514032-0.41-1.094483-0.6346-1.687911-0.6534z" style="fill:#cccccc"/>
  <path transform="translate(0,988.3622)" d="m17.621094 4.0019531c-1.98613-0.064-3.621174 1.4470532-3.621094 4.1894531v1c-8e-5 -2.7423999 1.634964-4.2534531 3.621094-4.1894531 0.593428 0.0188 1.173468 0.2442969 1.6875 0.6542969l14.460937 11.525391 14.462891 11.527343c1.058581 0.844694 1.638562 2.257932 1.746094 3.728516 0.131847-1.803141-0.448134-3.692809-1.746094-4.728516l-14.462891-11.527343-14.460937-11.525391c-0.514032-0.41-1.094072-0.6354969-1.6875-0.6542969z" style="fill:#ffffff;opacity:.2"/>
  <path d="m27.621286 992.3642c-1.98613-0.064-3.621366 1.4468-3.621286 4.1892v23.7448 23.7484c-8e-4 3.762 2.950004 5.4176 5.309196 3.5348l14.46032-11.5268 14.463078-11.5266c2.356542-1.8806 2.356542-6.5766 0-8.457l-14.463078-11.5268-14.46032-11.5266c-0.51403-0.41-1.094482-0.6346-1.68791-0.6534z" style="fill:#f47329"/>
  <path transform="translate(0,988.3622)" d="m27.621094 4.0019531c-1.98613-0.064-3.621174 1.4470532-3.621094 4.1894531v1c-8e-5 -2.7423999 1.634964-4.2534531 3.621094-4.1894531 0.593428 0.0188 1.17347 0.2442969 1.6875 0.6542969l14.460937 11.525391 14.462891 11.527343c1.058581 0.844694 1.638562 2.257932 1.746094 3.728516 0.131847-1.803141-0.448134-3.692809-1.746094-4.728516l-14.462891-11.527343-14.460937-11.525391c-0.51403-0.41-1.094072-0.6354969-1.6875-0.6542969z" style="fill:#ffffff;opacity:.2"/>
 </g>
</svg>

<svg xmlns="http://www.w3.org/2000/svg" width="64" height="64" version="1.1" viewBox="0 0 64 64">
 <g transform="translate(0,-988.3622)">
  <path style="opacity:0.2" d="M 7.6212858,993.3642 C 5.635156,993.3002 3.9999194,994.811 4,997.5534 l 0,23.7448 0,23.7484 c -8.006e-4,3.762 2.9500048,5.4176 5.309197,3.5348 l 14.460321,-11.5268 14.463076,-11.5266 c 2.356542,-1.8806 2.356542,-6.5766 0,-8.457 L 23.769518,1005.5442 9.309197,994.0176 c -0.5140314,-0.41 -1.094483,-0.6346 -1.6879112,-0.6534 z"/>
  <path style="opacity:0.2" d="M 17.621286,993.3642 C 15.635156,993.3002 13.99992,994.811 14,997.5534 l 0,23.7448 0,23.7484 c -8e-4,3.762 2.950005,5.4176 5.309197,3.5348 l 14.460319,-11.5268 14.463078,-11.5266 c 2.356542,-1.8806 2.356542,-6.5766 0,-8.457 L 33.769516,1005.5442 19.309197,994.0176 c -0.514032,-0.41 -1.094483,-0.6346 -1.687911,-0.6534 z"/>
  <path style="opacity:0.2" d="M 27.621286,993.3642 C 25.635156,993.3002 23.99992,994.811 24,997.5534 l 0,23.7448 0,23.7484 c -8e-4,3.762 2.950004,5.4176 5.309196,3.5348 l 14.46032,-11.5268 14.463078,-11.5266 c 2.356542,-1.8806 2.356542,-6.5766 0,-8.457 l -14.463078,-11.5268 -14.46032,-11.5266 c -0.51403,-0.41 -1.094482,-0.6346 -1.68791,-0.6534 z"/>
  <path style="fill:#358be1" d="M 7.6212858,992.3642 C 5.635156,992.3002 3.9999194,993.811 4,996.5534 l 0,23.7448 0,23.7484 c -8.006e-4,3.762 2.9500048,5.4176 5.309197,3.5348 l 14.460321,-11.5268 14.463076,-11.5266 c 2.356542,-1.8806 2.356542,-6.5766 0,-8.457 L 23.769518,1004.5442 9.309197,993.0176 c -0.5140314,-0.41 -1.094483,-0.6346 -1.6879112,-0.6534 z"/>
  <path style="opacity:0.2;fill:#ffffff" d="M 7.6210938 4.0019531 C 5.634964 3.9379531 3.9999194 5.4490063 4 8.1914062 L 4 9.1914062 C 3.9999194 6.4490063 5.634964 4.9379531 7.6210938 5.0019531 C 8.214522 5.0207531 8.7945623 5.24625 9.3085938 5.65625 L 23.769531 17.181641 L 38.232422 28.708984 C 39.291003 29.553678 39.870984 30.966916 39.978516 32.4375 C 40.110363 30.634359 39.530382 28.744691 38.232422 27.708984 L 23.769531 16.181641 L 9.3085938 4.65625 C 8.7945623 4.24625 8.214522 4.0207531 7.6210938 4.0019531 z" transform="translate(0,988.3622)"/>
  <path style="fill:#cccccc" d="M 17.621286,992.3642 C 15.635156,992.3002 13.99992,993.811 14,996.5534 l 0,23.7448 0,23.7484 c -8e-4,3.762 2.950005,5.4176 5.309197,3.5348 l 14.460319,-11.5268 14.463078,-11.5266 c 2.356542,-1.8806 2.356542,-6.5766 0,-8.457 L 33.769516,1004.5442 19.309197,993.0176 c -0.514032,-0.41 -1.094483,-0.6346 -1.687911,-0.6534 z"/>
  <path style="opacity:0.2;fill:#ffffff" d="M 17.621094 4.0019531 C 15.634964 3.9379531 13.99992 5.4490063 14 8.1914062 L 14 9.1914062 C 13.99992 6.4490063 15.634964 4.9379531 17.621094 5.0019531 C 18.214522 5.0207531 18.794562 5.24625 19.308594 5.65625 L 33.769531 17.181641 L 48.232422 28.708984 C 49.291003 29.553678 49.870984 30.966916 49.978516 32.4375 C 50.110363 30.634359 49.530382 28.744691 48.232422 27.708984 L 33.769531 16.181641 L 19.308594 4.65625 C 18.794562 4.24625 18.214522 4.0207531 17.621094 4.0019531 z" transform="translate(0,988.3622)"/>
  <path style="fill:#f47329" d="M 27.621286,992.3642 C 25.635156,992.3002 23.99992,993.811 24,996.5534 l 0,23.7448 0,23.7484 c -8e-4,3.762 2.950004,5.4176 5.309196,3.5348 l 14.46032,-11.5268 14.463078,-11.5266 c 2.356542,-1.8806 2.356542,-6.5766 0,-8.457 l -14.463078,-11.5268 -14.46032,-11.5266 c -0.51403,-0.41 -1.094482,-0.6346 -1.68791,-0.6534 z"/>
  <path style="opacity:0.2;fill:#ffffff" d="M 27.621094 4.0019531 C 25.634964 3.9379531 23.99992 5.4490063 24 8.1914062 L 24 9.1914062 C 23.99992 6.4490063 25.634964 4.9379531 27.621094 5.0019531 C 28.214522 5.0207531 28.794564 5.24625 29.308594 5.65625 L 43.769531 17.181641 L 58.232422 28.708984 C 59.291003 29.553678 59.870984 30.966916 59.978516 32.4375 C 60.110363 30.634359 59.530382 28.744691 58.232422 27.708984 L 43.769531 16.181641 L 29.308594 4.65625 C 28.794564 4.24625 28.214522 4.0207531 27.621094 4.0019531 z" transform="translate(0,988.3622)"/>
 </g>
</svg>
